src/16/panel/deluge-panel.svg

<svg xmlns="http://www.w3.org/2000/svg" width="16" height="16" version="1.1">
 <defs>
  <style id="current-color-scheme" type="text/css">
   .ColorScheme-Text { color:#bebebe; } .ColorScheme-Highlight { color:#5294e2; }
  </style>
 </defs>
 <path style="fill:currentColor" class="ColorScheme-Text" d="M 7.4101562 1 C 6.6113428 2.067408 4.884389 4.0867852 3.59375 6.2851562 C 4.5431407 5.3702251 5.5176309 5.0007786 6.4082031 5 C 9.3084228 4.9974905 11.77952 8.671614 10.732422 9.0507812 C 9.8987713 7.3509747 8.5261904 7.0265965 7.4980469 7 C 6.148048 6.9650784 5.0510408 8.3177672 5 9.8925781 C 4.8819026 13.536356 10.268419 13.102247 10.976562 14.214844 C 11.591218 13.88705 12.107684 13.460442 12.457031 12.925781 C 14.81506 9.3173194 8.8040563 3.18792 7.4101562 1 z M 3.59375 6.2851562 C 3.2512256 6.8685849 2.9380294 7.4617116 2.6835938 8.0566406 C 2.9388918 7.4630228 3.2514077 6.8682747 3.59375 6.2851562 z M 2.6835938 8.0566406 C 2.5563556 8.3541525 2.443209 8.6502871 2.3476562 8.9453125 C 2.4435556 8.650857 2.5559448 8.3534495 2.6835938 8.0566406 z M 2.3476562 8.9453125 C 2.2523371 9.2396166 2.1726241 9.5320362 2.1152344 9.8203125 C 2.172725 9.5315293 2.2517569 9.239768 2.3476562 8.9453125 z M 2.1152344 9.8203125 C 2.0651942 10.071671 2.036187 10.31825 2.0195312 10.5625 C 2.0349537 10.337036 2.0717655 10.080766 2.1152344 9.8203125 z M 2.0195312 10.5625 C 2.0125669 10.664629 2.012321 10.764639 2.0117188 10.865234 C 2.0111941 10.764821 2.0141696 10.664512 2.0195312 10.5625 z M 2.015625 10.941406 C 2.0181489 11.176839 2.0371574 11.40769 2.078125 11.632812 C 2.0538044 11.497407 2.0404729 11.358578 2.0292969 11.21875 C 2.0224678 11.126992 2.0176916 11.034297 2.015625 10.941406 z M 2.1542969 11.941406 C 2.1868976 12.060218 2.2144518 12.179938 2.2597656 12.294922 C 2.2174997 12.179602 2.1864108 12.060931 2.1542969 11.941406 z M 2.5429688 12.855469 C 2.5572078 12.878038 2.563265 12.903415 2.578125 12.925781 C 2.5921162 12.946837 2.6124536 12.963638 2.6269531 12.984375 C 2.6125131 12.963715 2.5940151 12.946751 2.5800781 12.925781 C 2.5652475 12.903459 2.5552697 12.87894 2.5429688 12.855469 z M 2.9453125 13.375 C 2.9887621 13.420817 3.0378538 13.461979 3.0839844 13.505859 C 3.0380205 13.462113 2.9890893 13.420356 2.9453125 13.375 z M 3.0839844 13.505859 C 3.2273499 13.64223 3.379929 13.77102 3.546875 13.888672 C 3.4910969 13.849354 3.4380406 13.808988 3.3847656 13.767578 C 3.2784888 13.684999 3.1795274 13.596749 3.0839844 13.505859 z M 3.9238281 14.128906 C 3.974546 14.157961 4.0239895 14.187248 4.0761719 14.214844 C 4.0238615 14.187026 3.9744491 14.158385 3.9238281 14.128906 z M 10.449219 14.462891 C 10.377179 14.492241 10.300483 14.516039 10.226562 14.542969 C 10.300717 14.515987 10.376956 14.492305 10.449219 14.462891 z M 9.8007812 14.685547 C 9.7376997 14.703416 9.6734917 14.720046 9.609375 14.736328 C 9.6735224 14.719632 9.737597 14.703868 9.8007812 14.685547 z M 5.2792969 14.693359 C 5.489658 14.753438 5.7062575 14.801419 5.9257812 14.84375 C 5.7662259 14.813024 5.6100314 14.776428 5.4550781 14.736328 C 5.3968458 14.721266 5.3367968 14.709677 5.2792969 14.693359 z M 5.9257812 14.84375 C 6.0075134 14.85951 6.0891786 14.87342 6.171875 14.886719 C 6.0896051 14.873499 6.0070973 14.8594 5.9257812 14.84375 z M 9.1914062 14.832031 C 9.0925552 14.851881 8.9929212 14.870519 8.8925781 14.886719 C 8.8203553 14.898359 8.7466911 14.906316 8.6738281 14.916016 C 8.8483824 14.892694 9.0209669 14.866207 9.1914062 14.832031 z M 8.6738281 14.916016 C 8.3361152 14.961256 7.9951198 14.989541 7.6503906 14.994141 C 7.9944826 14.989541 8.33673 14.961054 8.6738281 14.916016 z M 6.484375 14.927734 C 6.8397449 14.971149 7.197427 14.999097 7.5585938 14.998047 C 7.1984993 14.999127 6.8387088 14.970874 6.484375 14.927734 z"/>
 <path style="opacity:0.3;fill:currentColor;fill-rule:evenodd" class="ColorScheme-Text" d="M 6.4082031 5 C 5.5176309 5.0007786 4.5431407 5.3702251 3.59375 6.2851562 C 2.9090654 7.4513932 2.345197 8.6651796 2.1152344 9.8203125 C 2.0717655 10.080766 2.0349537 10.337036 2.0195312 10.5625 C 2.014135 10.66517 2.0111452 10.766126 2.0117188 10.867188 C 2.0117298 10.86913 2.0117056 10.871105 2.0117188 10.873047 C 2.0116164 10.896132 2.0151154 10.918501 2.015625 10.941406 C 2.0176916 11.034297 2.0224678 11.126992 2.0292969 11.21875 C 2.0404729 11.358578 2.0538044 11.497406 2.078125 11.632812 C 2.0784645 11.634703 2.0777813 11.636783 2.078125 11.638672 C 2.096936 11.74114 2.1269019 11.841416 2.1542969 11.941406 C 2.1864108 12.060931 2.2174997 12.179602 2.2597656 12.294922 C 2.3331405 12.481111 2.4243069 12.662952 2.5332031 12.837891 C 2.5507934 12.86635 2.561497 12.897814 2.5800781 12.925781 C 2.5940151 12.946751 2.6125131 12.963715 2.6269531 12.984375 C 2.6589054 13.030072 2.6980622 13.07109 2.7324219 13.115234 C 2.8010838 13.203448 2.867539 13.292989 2.9453125 13.375 C 2.9890893 13.420356 3.0380205 13.462113 3.0839844 13.505859 C 3.1795274 13.596749 3.2784888 13.684999 3.3847656 13.767578 C 3.4380406 13.808988 3.4910969 13.849354 3.546875 13.888672 C 3.6043934 13.929207 3.6665245 13.965594 3.7265625 14.003906 C 3.7850746 14.041428 3.8415406 14.081933 3.9023438 14.117188 C 3.9094463 14.121305 3.9167462 14.124782 3.9238281 14.128906 C 3.97522 14.158834 4.0249136 14.188602 4.078125 14.216797 C 4.079432 14.217489 4.0807215 14.21806 4.0820312 14.21875 C 4.2612638 14.313239 4.4461699 14.401211 4.640625 14.478516 C 4.640625 14.478516 4.6425781 14.478516 4.6425781 14.478516 C 4.8070504 14.543845 4.9809727 14.599313 5.1542969 14.652344 C 5.1960823 14.665005 5.2351969 14.68132 5.2773438 14.693359 C 5.2779436 14.693531 5.2786969 14.693188 5.2792969 14.693359 C 5.3367968 14.709677 5.3968458 14.721266 5.4550781 14.736328 C 5.6100314 14.776428 5.7662259 14.813024 5.9257812 14.84375 C 6.0070973 14.8594 6.0896051 14.873499 6.171875 14.886719 C 6.2753211 14.903339 6.3797136 14.914974 6.484375 14.927734 C 6.8387088 14.970874 7.1984993 14.999127 7.5585938 14.998047 C 7.5891528 14.997961 7.6198406 14.994541 7.6503906 14.994141 C 7.9951198 14.989541 8.3361152 14.961256 8.6738281 14.916016 C 8.7466911 14.906316 8.8203553 14.898359 8.8925781 14.886719 C 8.9929212 14.870519 9.0925552 14.851881 9.1914062 14.832031 C 9.3169584 14.806831 9.4418572 14.779147 9.5644531 14.748047 C 9.5728914 14.745905 9.5814113 14.744311 9.5898438 14.742188 C 9.6611645 14.724231 9.7325807 14.705444 9.8027344 14.685547 C 9.9286986 14.648986 10.05027 14.605524 10.171875 14.5625 C 10.190009 14.555971 10.208468 14.549555 10.226562 14.542969 C 10.300482 14.516039 10.377179 14.492241 10.449219 14.462891 C 10.632098 14.388437 10.807632 14.304893 10.976562 14.214844 C 10.268418 13.102247 4.8819026 13.536356 5 9.8925781 C 5.0510408 8.3177672 6.148048 6.9650784 7.4980469 7 C 8.5261904 7.0265965 9.8987714 7.3509746 10.732422 9.0507812 C 11.77952 8.6716139 9.3084228 4.9974905 6.4082031 5 z"/>
</svg>

<svg xmlns="http://www.w3.org/2000/svg" width="16" height="16"><defs><style id="current-color-scheme" type="text/css">.ColorScheme-Text{color:#bebebe}</style></defs><path class="ColorScheme-Text" d="M7.41 1c-.799 1.067-2.526 3.087-3.816 5.285C4.544 5.37 5.518 5.001 6.408 5c2.9-.003 5.372 3.672 4.324 4.05C9.9 7.352 8.526 7.028 7.498 7 6.148 6.965 5.051 8.318 5 9.893c-.118 3.643 5.268 3.21 5.977 4.322.614-.328 1.13-.755 1.48-1.29C14.815 9.318 8.804 3.189 7.41 1zM3.594 6.285zm-.91 1.772zm-.336.888zm-.233.875c-.05.252-.079.498-.095.742a7.99 7.99 0 0 1 .095-.742zm-.095.742a5.233 5.233 0 0 1 0 0zm-.004.38c.002.235.021.466.062.69a5.342 5.342 0 0 1-.063-.691zm.138 1c.033.118.06.238.106.353-.043-.115-.074-.234-.106-.354zm.389.913c.014.023.02.048.035.07.014.022.034.039.049.06-.014-.021-.033-.038-.047-.06-.015-.022-.025-.046-.037-.07zm.402.52c.044.046.093.087.139.13-.046-.043-.095-.085-.139-.13zm.139.13zm.84.624a4.48 4.48 0 0 1 0 0zm6.525.334c-.072.03-.149.053-.222.08.074-.027.15-.05.222-.08zm-.648.223a7.265 7.265 0 0 1-.192.05c.065-.016.129-.032.192-.05zm-4.522.007c.21.06.427.108.647.15a7.647 7.647 0 0 1-.47-.107c-.06-.015-.12-.026-.177-.043zm.647.15zm3.265-.011c-.098.02-.198.039-.298.055a8.06 8.06 0 0 0 .299-.055zm-.517.084zm-2.19.012z" fill="currentColor"/><path class="ColorScheme-Text" d="M6.408 5c-.89 0-1.865.37-2.814 1.285-.685 1.166-1.249 2.38-1.479 3.535a7.99 7.99 0 0 0-.095.742 5.226 5.226 0 0 0-.008.305v.006c0 .023.003.046.004.068a5.342 5.342 0 0 0 .062.692v.006c.019.102.049.202.076.302.032.12.063.239.106.354.073.186.164.368.273.543.018.028.028.06.047.088.014.02.033.038.047.058.032.046.071.087.105.131.07.088.136.178.213.26.044.045.093.087.139.13a3.982 3.982 0 0 0 .463.384c.057.04.12.077.18.115.058.037.115.078.175.113l.022.012c.051.03.1.06.154.088l.004.002c.18.094.364.182.559.26h.002c.164.065.338.12.511.173.042.013.081.03.123.041h.002c.058.017.118.028.176.043a7.647 7.647 0 0 0 .717.15c.103.017.208.029.312.042.355.043.714.071 1.075.07.03 0 .06-.003.091-.004a8.561 8.561 0 0 0 1.024-.078c.073-.01.146-.018.219-.03a7.972 7.972 0 0 0 .671-.138l.026-.006.213-.056c.126-.037.247-.08.369-.123l.055-.02c.073-.027.15-.05.222-.08a5.65 5.65 0 0 0 .528-.248c-.709-1.113-6.095-.679-5.977-4.322C5.051 8.318 6.148 6.965 7.498 7c1.028.027 2.4.351 3.234 2.05C11.78 8.673 9.308 4.998 6.408 5z" opacity=".3" fill="currentColor" fill-rule="evenodd"/></svg>
